X:7320
T:The Sea Man
O:england
M:6/8
L:1/8
Q:100
C:Words by Rhonwen y Llysieuyddes (m.k.a. Julia West); Tune:  Traditional
S:From "A Breeze Through the CONduit"
B:A Breeze Through the CONduit, (c) 1992 by Julia West
W:Young Huw and Cerys walked beside
W:The seashore just at eventide.
W:Said Huw, "I love you more than life;
W:Pray say that you will be my wife."
K:G
D|D2 E F2 G|A2 G D2 G| F2 D E2 A| G2 E C2 C| D2 E F2 G| A2 G D2 D|
D2 A, C2 D| E2 D D2||


